!!!!SEGMENT: pl-kk--kk-i-1--003-003_anonim--missa-patrem.krn
!!!cenid: 15xx:665
!!!COM: Anonim
!!!COM-rismID: pe30004985
!!!CDT:
!!!CNT:
!!!OPR: [Missa]
!!!OTL: Patrem
!!!OMV: 003
!!!PDT:
!!!AGN:
!!!SMS-siglum: PL-Kk
!!!SMS-shelfmark: Kk.I.1
!!!SMS-shelfwork: 003-003 M
!!!SMS-variant:
!!!SMS-altvar:
!!!NIFC-rismSourceID: 300257954
!!!NIFC-rismChildID: 300257957
!!!NIFC-islandoraID: pl-kk:1
!!!URL-pdf-islandora: https://repozytorium.nifc.pl/islandora/object/pl-kk%3A1/datastream/PDF/view
!!!URL-scan: https://polish.musicsources.pl/pl/lokalizacje/galeria/rekopisy/5736 @EN{Scan on Polish Music Sources Website} @PL{Skany w portalu Dziedzictwo Muzyki Polskiej w otwartym dostępie}
!!!IIIF: https://repozytorium.nifc.pl/islandora/object/pl-kk%3A1/datastream/IIIF/view
!!!ONB-nifc: UWAGA: Cantus (s. 12r-21r, skan 0014-0023), Altus (s. 12v-20v, skan 0205-0213), Tenor (s. 12v-21v, skan 0401-0410), Bassus (s. 12v-20v, skan 0574-0582). Części Mszy: 1. Kyrie, 2. Et in terra, 3. Patrem, 4. Sanctus, 5. Agnus Dei
!!!AIN: 1 alto 1 bass 1 soprn 1 tenor
!!!key:
**kern	**text	**kern	**text	**kern	**text	**kern	**text
*part4	*part4	*part3	*part3	*part2	*part2	*part1	*part1
*staff4	*staff4	*staff3	*staff3	*staff2	*staff2	*staff1	*staff1
*ICvox	*	*ICvox	*	*ICvox	*	*ICvox	*
*Ibass	*	*Itenor	*	*Ialto	*	*Isoprn	*
*I"BASSVS	*	*I"TENOR	*	*I"ALTVS	*	*I"CANTVS	*
*I'B	*	*I'T	*	*I'A	*	*I'C	*
*clefF4	*	*clefC4	*	*clefC3	*	*clefC3	*
*k[b-]	*	*k[b-]	*	*k[b-]	*	*k[b-]	*
*F:	*	*F:	*	*F:	*	*F:	*
*M2/1	*	*M2/1	*	*M2/1	*	*M2/1	*
=1-	=1-	=1-	=1-	=1-	=1-	=1-	=1-
*xywh-#576:5572,1373,4350,872	*	*xywh-#404:960,472,4331,951	*	*xywh-#208:1244,483,4380,959	*	*xywh-#17:5539,2209,4468,974	*
0r	.	0r	.	0r	.	1.F	Pa-
.	.	.	.	.	.	2G/	-trem
=2-	=2-	=2-	=2-	=2-	=2-	=2-	=2-
0r	.	0r	.	1.F	Pa-	2A/	om-
.	.	.	.	.	.	2F/	-ni-
.	.	.	.	.	.	2A/	-po-
.	.	.	.	2G/	-trem	2B-/	-te(n)-
=3-	=3-	=3-	=3-	=3-	=3-	=3-	=3-
0r	.	1.F	PA-	2A/	om-	1c	-tem,
.	.	.	.	2F/	-ni-	.	.
.	.	.	.	2A/	-po-	1r	.
.	.	2G/	-trem	2B-/	-te-	.	.
=4-	=4-	=4-	=4-	=4-	=4-	=4-	=4-
1.F	Fac-	2A/	om-	1c	-tem	1.f	Fac-
.	.	2F/	-ni-	.	.	.	.
.	.	2A/	-po-	1r	.	.	.
2G\	-to-	2B-/	-ten-	.	.	2f\	-to-
=5-	=5-	=5-	=5-	=5-	=5-	=5-	=5-
2.A\	-rem	1c	-te(m)	2r	.	2e\	-re(m)
.	.	.	.	1F	Fac-	2c/	cae-
4G\	c(ae)-	.	.	.	.	.	.
2F\	-li	1r	.	.	.	2d/	-li
2E\	et	.	.	2G/	-to-	2e/	et
=6-	=6-	=6-	=6-	=6-	=6-	=6-	=6-
0D	ter-	2r	.	2.A/	-rem	1.f	ter-
.	.	2F/	Fac-	.	.	.	.
.	.	.	.	8B-/L	.	.	.
.	.	.	.	8c/J	.	.	.
.	.	2A/	-to-	2d/	c(ae)-	.	.
.	.	2B-/	-rem	2d/	-li	4e/	-re,
.	.	.	.	.	.	4d/	.
=7-	=7-	=7-	=7-	=7-	=7-	=7-	=7-
*	*	*	*	*custos:G	*	*	*
0C	-re,	2.c\	c(ae)-	2G/	et	1e	.
*	*	*	*	*xywh-#208:1347,1322,4260,856	*	*	*
.	.	.	.	2G/	.	.	.
.	.	4B-\	-li	.	.	.	.
.	.	2A/	et	2.c/	ter-	2r	.
*	*	*custos:F	*	*	*	*	*
.	.	2G/	ter-	.	.	1c\	Vi-
.	.	.	.	4B-/	-r(ae):	.	.
=8-	=8-	=8-	=8-	=8-	=8-	=8-	=8-
*	*	*xywh-#404:1017,1274,4296,876	*	*	*	*	*
2r	.	1F	-re,	4A/	.	.	.
.	.	.	.	4G/	.	.	.
*	*	*	*	*	*	*custos:A	*
1F	ui-	.	.	4A/	.	2c/	-ſi-
.	.	.	.	4B-/	.	.	.
*	*	*	*	*	*	*xywh-#17:5676,2962,4332,852	*
!	!	!	!	!	!	!LO:LB:g=original	!
.	.	1r	.	1c	.	2A/	-bi-
2F\	-ſi-	.	.	.	.	2F/	-li-
=9-	=9-	=9-	=9-	=9-	=9-	=9-	=9-
2D/	-bi-	2r	.	2r	.	2.f\	-um
2BB-/	-li-	1F	Vi-	1f	vi-	.	.
.	.	.	.	.	.	4e\	.
1D	-u(m)	.	.	.	.	2d\	.
.	.	2F/	-ſi-	2d\	-ſi-	2B-/	om-
=10-	=10-	=10-	=10-	=10-	=10-	=10-	=10-
2.C/	om-	2E/	bi-	2e\	bi-	2.c/	.
.	.	2C/	-li-	2e\	-li-	.	.
8BB-/L	.	.	.	.	.	4B-/	-ni-
8AA/J	.	.	.	.	.	.	.
*custos:BB-	*	*	*	*	*	*	*
2BB-/	.	2D/	-um	2d\	-um	1G	-um
*xywh-#576:5606,2132,4401,855	*	*	*	*	*	*	*
2C/	-ni-	2E/	om-	2.c/	om-	.	.
=11-	=11-	=11-	=11-	=11-	=11-	=11-	=11-
2FF/	-um	1F	ni-	.	.	2A/	.
.	.	.	.	4B-/	-ni-	.	.
2.F\	et	.	.	2A/	-um	1c	.
.	.	1C	-um,	1G	.	.	.
4E\	in-	.	.	.	.	.	.
2E\	-ui-	.	.	.	.	2c/	et
=12-	=12-	=12-	=12-	=12-	=12-	=12-	=12-
2.D/	-ſi-	2.F/	et	2A/	.	2d/	in-
.	.	.	.	1F	et	2A/	-ui-
4C/	-bi-	4E/	in-	.	.	.	.
2BB-/	-li-	2D/	-ui-	.	.	2B-/	-ſi-
2AA/	-um,	2C/	-ſi-	2F/	in-	2c/	-bi-
=13-	=13-	=13-	=13-	=13-	=13-	=13-	=13-
*	*	*	*	*custos:G	*	*	*
1GG	.	2D/	-bi-	2G/	-ui-	2.B-/	-li-
*	*	*	*	*xywh-#208:1387,2099,4209,828	*	*	*
.	.	2E/	-li-	2G/	-ſi-	.	.
.	.	.	.	.	.	8A/L	-um,
.	.	.	.	.	.	8G/J	.
0FF	.	1F	-um,	2.c/	-bi-	4A/	.
.	.	.	.	.	.	4G/	.
.	.	.	.	.	.	4A/	.
*	*	*	*	*	*	*custos:c	*
.	.	.	.	4B-/	-li-	4B-/	.
=14-	=14-	=14-	=14-	=14-	=14-	=14-	=14-
*	*	*	*	*	*	*xywh-#18:1060,601,4202,988	*
!	!	!	!	!	!	!LO:PB:g=original	!
.	.	2r	.	1A	-um,	0c	.
.	.	1F	Et	.	.	.	.
2r	.	.	.	2r	.	.	.
1FF/	Et	2F/	in	1A/	Et	.	.
=15-	=15-	=15-	=15-	=15-	=15-	=15-	=15-
.	.	2.F/	v-	.	.	2r	.
2FF/	in	.	.	2A/	in	2c/	et
*	*	*custos:D	*	*	*	*	*
.	.	4E/	-num	.	.	.	.
*	*	*xywh-#404:1051,1996,4233,916	*	*	*	*	*
2BB-/	u-	2D/	.	2B-/	v-	2d\	in
2AA/	-nu(m)	2C/	.	2c/	-num	2e\	u-
=16-	=16-	=16-	=16-	=16-	=16-	=16-	=16-
1D	do-	2D/	.	2A/	do-	2f\	-num
.	.	2.F/	do-	2.B-/	-mi-	2d\	.
1C	-mi-	.	.	.	.	1e	do-
.	.	4E/	.	4A/	.	.	.
.	.	2E/	-mi-	2A/	-nu(m)	.	.
=17-	=17-	=17-	=17-	=17-	=17-	=17-	=17-
1BB-	-nu(m)	2F/	-num	2.B-/	Ie-	4d\	-mi-
.	.	.	.	.	.	4c\	.
.	.	1F	Ie-	.	.	4d\	-nu(m)
.	.	.	.	4A/	-ſum	4e\	.
2r	.	.	.	2A/	Chri-	1f	.
*custos:BB-	*	*	*	*	*	*	*
1BB-/	Ie-	2F/	-ſum	2B-/	.	.	.
=18-	=18-	=18-	=18-	=18-	=18-	=18-	=18-
*xywh-#576:5612,2936,4344,798	*	*	*	*	*	*	*
.	.	1.B-	Chri-	1F	-ſtum	2r	.
2BB-/	-ſum	.	.	.	.	2d/	Ie-
1E-X	Chri-	.	.	2r	.	1g	-ſu(m)
*	*	*	*	*custos:A	*	*	*
.	.	2c\	.	2G/	Ie-	.	.
=19-	=19-	=19-	=19-	=19-	=19-	=19-	=19-
*	*	*	*	*xywh-#208:1381,2807,4220,1010	*	*	*
1D	.	1d	-ſtu(m),	2A/	-ſum	1f	chr(i-
.	.	.	.	2B-/	chr(i-	.	.
0C	-ſtu(m)	2r	.	1c	-stu)m,	2.e\	-stu)m,
.	.	1G/	fi-	.	.	.	.
.	.	.	.	.	.	4f\	.
=20-	=20-	=20-	=20-	=20-	=20-	=20-	=20-
.	.	.	.	2r	.	1g	.
.	.	2G/	-li-	1G	fi-	.	.
2r	.	2C/	-um	.	.	2r	.
1C/	fi-	2.c\	de-	2G/	-li-	1e\	fi-
=21-	=21-	=21-	=21-	=21-	=21-	=21-	=21-
.	.	.	.	2.c/	-um	.	.
.	.	4B-\	-i	.	.	.	.
*	*	*	*	*	*	*custos:c	*
2C/	-li-	2.A\	v-	.	.	2e\	-li-
.	.	.	.	4B-/	.	.	.
*	*	*	*	*	*	*xywh-#18:1076,1411,4180,904	*
!	!	!	!	!	!	!LO:LB:g=original	!
2.F\	-um-	.	.	2.A/	de-	2c/	-um-
.	.	4G/	-ni-	.	.	.	.
*	*	*custos:E	*	*	*	*	*
.	.	1F/	-ge-	.	.	2c/	-de-
4E\	.	.	.	4G/	-i	.	.
=22-	=22-	=22-	=22-	=22-	=22-	=22-	=22-
2D\	-de-	.	.	2F/	v-	2d/	-i
*	*	*xywh-#404:1074,2803,4262,819	*	*	*	*	*
2C/	-i	2E/	-ni-	4G/	-ni-	2e\	v-
.	.	.	.	4A/	-ge-	.	.
2BB-/	v-	4F/	-tum,	2B-/	-ni-	4d/	-ni-
.	.	4G/	.	.	.	4c/	.
2AA/	-ni-	4A/	.	2c/	.	2.f\	-ge-
.	.	4F/	.	.	.	.	.
=23-	=23-	=23-	=23-	=23-	=23-	=23-	=23-
2BB-/	-ge-	2G/	.	2B-/	-tum,	.	.
.	.	.	.	.	.	4e\	-ni-
2C/	-ni-	2G/	.	2G/	.	2e\	-tum,
0FF	-tum,	0F	.	1A	.	0f	.
=24-	=24-	=24-	=24-	=24-	=24-	=24-	=24-
.	.	.	.	2r	.	.	.
.	.	.	.	1c	et	.	.
1r	.	1r	.	.	.	2r	.
*	*	*	*	*custos:A	*	*	*
.	.	.	.	2B-/	ex	1f\	et
=25-	=25-	=25-	=25-	=25-	=25-	=25-	=25-
*	*	*	*	*xywh-#208:5796,700,4346,868	*	*	*
0r	.	0r	.	2A/	pa-	.	.
.	.	.	.	2G/	-tre	2e\	ex
.	.	.	.	2B-/	na-	2d/	p(at)-
.	.	.	.	4A/	-tum,	2c/	-re
.	.	.	.	4G/	.	.	.
=26-	=26-	=26-	=26-	=26-	=26-	=26-	=26-
2r	.	1r	.	1F	.	1f	na-
1F	an-	.	.	.	.	.	.
.	.	2r	.	1r	.	1c	-tu(m),
2E\	-te	2c\	an-	.	.	.	.
=27-	=27-	=27-	=27-	=27-	=27-	=27-	=27-
*custos:C	*	*	*	*	*	*	*
2D\	om-	2B-\	te	0r	.	0r	.
*xywh-#577:930,586,4307,885	*	*	*	*	*	*	*
2C/	-ni-	2A/	om-	.	.	.	.
2E-X/	-a	2G/	-ni-	.	.	.	.
4D/	ſe-	2F/	-a	.	.	.	.
4C/	.	.	.	.	.	.	.
=28-	=28-	=28-	=28-	=28-	=28-	=28-	=28-
2BB-/	-cu-	2B-\	ſe-	2r	.	1r	.
2C/	-la,	4A/	-cu-	2.c/	an-	.	.
.	.	4G/	.	.	.	.	.
1D	.	2F/	.	.	.	2r	.
.	.	.	.	4B-/	-te	.	.
.	.	2F/	-la,	2B-/	om-	2.f\	an-
=29-	=29-	=29-	=29-	=29-	=29-	=29-	=29-
1C	.	1c	.	2A/	ni-	.	.
.	.	.	.	.	.	4e\	-te
.	.	.	.	2G/	-a	2e\	om-
*	*	*	*	*	*	*custos:c	*
2BB-/	.	2r	.	2B-/	ſe-	2d\	-ni-
*	*	*custos:B-	*	*	*	*	*
*	*	*	*	*	*	*xywh-#18:1026,2150,4257,904	*
!	!	!	!	!	!	!LO:LB:g=original	!
2C/	.	2c\	an-	4A/	-cu-	2c/	-a
.	.	.	.	4G/	.	.	.
=30-	=30-	=30-	=30-	=30-	=30-	=30-	=30-
*	*	*xywh-#404:5778,523,4417,956	*	*	*	*	*
2.D/	ſe-	2B-\	te	4F/	-la.	2.f\	ſe-
.	.	.	.	4G/	.	.	.
.	.	2.A/	om-	4A/	.	.	.
8C/L	-cu-	.	.	4B-/	.	8e\L	-cu-
8BB-/J	.	.	.	.	.	8d\J	.
2AA/	-la	.	.	2c/	.	2e\	-la,
.	.	4G/	-ni-	.	.	.	.
1BB-/	.	2.F/	-a-	1B-/	.	2.d\	.
=31-	=31-	=31-	=31-	=31-	=31-	=31-	=31-
.	.	.	.	.	.	.	.
.	.	4E/	.	.	.	4c/	.
*	*	*	*	*custos:G	*	*	*
2C/	.	4D/	.	2A/	.	1c	.
.	.	4C/	.	.	.	.	.
*	*	*	*	*xywh-#208:5796,1453,4215,845	*	*	*
1GG	.	2D/	.	0G	.	.	.
!	!	!	!	!	!	!LO:SIC:v:s=2Bn/	!
.	.	2D/	-ſe-	.	.	2B-/	.
=32-	=32-	=32-	=32-	=32-	=32-	=32-	=32-
1.C	.	2.C/	-cu-	.	.	2.c/	ſe-
.	.	4D/	-la;	.	.	8B-/L	-cu-
.	.	.	.	.	.	8A/J	.
.	.	1E	.	2r	.	2G/	-la,
2AA/	.	.	.	2A/	De-	1c\	.
=33-	=33-	=33-	=33-	=33-	=33-	=33-	=33-
1AA	.	2r	.	2c/	-um	.	.
.	.	2E/	De-	2c/	de	4B-/	.
.	.	.	.	.	.	4A/	.
1r	.	2G/	-um	1d	de-	1B-	.
.	.	2G/	de	.	.	.	.
=34-	=34-	=34-	=34-	=34-	=34-	=34-	=34-
*	*	*lig	*	*	*	*	*
2r	.	1A	de-	1c	-o;	1A	.
*custos:C	*	*	*	*	*	*	*
2AA/	De-	.	.	.	.	.	.
*	*	*col	*	*	*	*	*
*xywh-#577:1002,1331,4263,890	*	*	*	*	*	*	*
2C/	-um	2.G/	.	2.c/	de	1r	.
2C/	de	.	.	.	.	.	.
*	*	*Xlig	*	*	*	*	*
.	.	8F/L	-o,	4B-/	.	.	.
.	.	8E/J	.	.	.	.	.
=35-	=35-	=35-	=35-	=35-	=35-	=35-	=35-
*lig	*	*	*	*	*	*	*
1D	de-	1F	.	4A/	.	2r	.
.	.	.	.	4G/	.	.	.
.	.	.	.	2F/	de-	2A/	De-
*col	*	*Xcol	*	*	*	*	*
*	*	*custos:E	*	*	*	*	*
2.C/	.	1E	.	2G/	-o	2c/	-u(m)
.	.	.	.	1A/	.	2c/	de
*Xlig	*	*	*	*	*	*	*
8BB-/L	-o,	.	.	.	.	.	.
8AA/J	.	.	.	.	.	.	.
*Xcol	*	*	*	*	*	*	*
=36-	=36-	=36-	=36-	=36-	=36-	=36-	=36-
*	*	*	*	*	*	*custos:c	*
1BB-	.	0r	.	.	.	1d	de-
.	.	.	.	2G/	.	.	.
*	*	*	*	*	*	*xywh-#18:1043,2927,4263,843	*
!	!	!	!	!	!	!LO:LB:g=original	!
0AA	.	.	.	2A/	lu-	2c/	-o,
.	.	.	.	2A/	-men	2c/	lu-
=37-	=37-	=37-	=37-	=37-	=37-	=37-	=37-
.	.	2r	.	2c/	de	2A/	-me(n)
*	*	*xywh-#404:5772,1371,4216,813	*	*	*	*	*
.	.	2E/	lu-	2c/	lu-	2A/	de
1r	.	2G/	-men	2d\	-mi-	2.B-/	lu-
*	*	*	*	*custos:c	*	*	*
.	.	2G/	de	2d\	-ne,	.	.
.	.	.	.	.	.	4A/	-mi-
=38-	=38-	=38-	=38-	=38-	=38-	=38-	=38-
*	*	*	*	*xywh-#208:5819,2167,4169,868	*	*	*
2r	.	2A/	lu-	2.c/	.	1F	-ne,
2FF/	lu-	2A/	-mi-	.	.	.	.
.	.	.	.	4B-/	.	.	.
2C/	-me(n)	2G/	-ne,	2c/	.	1r	.
2C/	de	2c\	.	2e\	.	.	.
=39-	=39-	=39-	=39-	=39-	=39-	=39-	=39-
2D/	lu-	2B-\	.	1d	.	2r	.
2D/	-mi-	2.A/	de-	.	.	2.f\	de-
1C	-ne,	.	.	2r	.	.	.
.	.	4G/	-um	.	.	4e\	-um
.	.	2G/	ue-	2c\	de-	2e\	ue-
=40-	=40-	=40-	=40-	=40-	=40-	=40-	=40-
1r	.	2F/	-rum,	2d\	-um	2d\	-ru(m),
.	.	2E/	.	2e\	ue-	2c/	.
2r	.	2D/	de	1f	-rum,	2B-/	de
2.F\	de-	2D/	de-	.	.	2.A/	de-
=41-	=41-	=41-	=41-	=41-	=41-	=41-	=41-
.	.	1C	-o	0r	.	.	.
4E\	-um	.	.	.	.	4G/	-o
2E\	ue-	.	.	.	.	2G/	ve-
*	*	*	*	*	*	*lig	*
2D/	-ru(m)	2F/	ve-	.	.	1A	-ro,
2C/	de	2E/	.	.	.	.	.
=42-	=42-	=42-	=42-	=42-	=42-	=42-	=42-
*	*	*custos:D	*	*	*	*	*
2.BB-/	de-	1F	-ro,	2r	.	1B-	.
.	.	.	.	1f	.	.	.
4C/	.	.	.	.	.	.	.
*custos:D	*	*	*	*	*	*	*
*	*	*	*	*	*	*Xlig	*
*	*	*xywh-#404:5755,2093,4233,779	*	*	*	*	*
2D/	-o	1r	.	.	.	1A	.
*xywh-#577:924,2127,4302,823	*	*	*	*	*	*	*
2.C/	ve-	.	.	2e\	.	.	.
=43-	=43-	=43-	=43-	=43-	=43-	=43-	=43-
.	.	2r	.	2d\	.	2F/	.
4BB-/	.	.	.	.	.	.	.
*	*	*	*	*	*	*custos:A	*
2BB-/	-ro,	2D/	de	2d\	.	2G/	.
*	*	*	*	*	*	*xywh-#18:5739,645,4330,960	*
!	!	!	!	!	!	!LO:PB:g=original	!
2AA/	.	2E/	de-	2.c/	de	1A	.
2FF/	.	2F/	-o	.	.	.	.
.	.	.	.	8B-/L	de-	.	.
.	.	.	.	8A/J	.	.	.
=44-	=44-	=44-	=44-	=44-	=44-	=44-	=44-
1GG	.	2.D/	ve-	2B-/	-o	1G	.
*	*	*	*	*custos:A	*	*	*
.	.	.	.	2B-/	ve-	.	.
.	.	4E/	-ro,	.	.	.	.
*	*	*	*	*xywh-#208:5756,2875,4266,919	*	*	*
0FF	.	00F	.	0A	-ro	2r	.
.	.	.	.	.	.	2.c/	Ge-
=45-	=45-	=45-	=45-	=45-	=45-	=45-	=45-
.	.	.	.	.	.	.	.
.	.	.	.	.	.	4c/	-ni-
.	.	.	.	.	.	2c/	-tum
1r	.	.	.	2r	.	2d/	no(n)
.	.	.	.	2.c/	Ge-	2c/	fac-
=46-	=46-	=46-	=46-	=46-	=46-	=46-	=46-
0r	.	.	.	.	.	2.A/	-tu(m)
.	.	.	.	4c/	-ni-	.	.
.	.	.	.	2c/	-tum	.	.
.	.	.	.	.	.	4A/	con-
.	.	2r	.	2d\	non	2B-/	-ſub-
.	.	2.c\	Ge-	2c/	fac-	2A/	-ſtan-
=47-	=47-	=47-	=47-	=47-	=47-	=47-	=47-
1r	.	.	.	2.A/	-tum	2F/	-ti-
.	.	4c\	-ni-	.	.	.	.
.	.	2c\	-tum	.	.	2F/	-a-
.	.	.	.	4A/	con-	.	.
2r	.	2d\	non-	2B-/	-ſub-	2.f\	-le(m)
2.F\	Ge-	2c\	.	2A/	ſtan -	.	.
.	.	.	.	.	.	4f\	p(at)-
=48-	=48-	=48-	=48-	=48-	=48-	=48-	=48-
.	.	2.A/	-fac-	2F/	-ti-	1f	-ri,
4F\	-ni-	.	.	.	.	.	.
2F\	-tu(m)	.	.	2c/	-a-	.	.
.	.	4A/	-tum	.	.	.	.
2G\	non	2B-\	con-	2B-/	-le(m)	2r	.
*	*	*	*	*	*	*	*ij
2F\	fac-	2A/	-ſub-	2c/	p(at)-	2.f\	con-
=49-	=49-	=49-	=49-	=49-	=49-	=49-	=49-
2.D/	-tu(m)	2F/	-ſtan-	1d	-ri,	.	.
.	.	.	.	.	.	4f\	-ſub-
*	*	*	*	*	*	*custos:g	*
.	.	2A/	-ti-	.	.	2f\	-ſtan-
4D/	con-	.	.	.	.	.	.
*	*	*custos:A	*	*	*	*	*
*	*	*	*	*	*	*xywh-#18:5734,1472,4269,882	*
!	!	!	!	!	!	!LO:LB:g=original	!
2E\	-ſub-	2G/	-a-	2r	.	2g\	-ti-
*	*	*xywh-#404:5749,2798,4256,847	*	*	*	*	*
2D/	-ſta(n)-	2A/	-lem	2d\	con-	2f\	-a-
=50-	=50-	=50-	=50-	=50-	=50-	=50-	=50-
*	*	*	*	*custos:c	*	*	*
2BB-/	-ti-	2B-\	.	2d\	-ſub-	2d\	-lem
*	*	*	*	*xywh-#209:1382,635,4051,886	*	*	*
2C/	-a-	2G/	pa-	2c/	-ſtan-	2e\	pat-
*custos:C	*	*	*	*	*	*	*
1D	-lem-	2.F/	-tri,	2.f\	-ci-	2d\	.
.	.	.	.	.	.	2B-/	.
.	.	4G/	.	4f\	-a-	.	.
=51-	=51-	=51-	=51-	=51-	=51-	=51-	=51-
*xywh-#577:946,2860,4296,845	*	*	*	*	*	*	*
2C/	-pa-	2A\	.	2e\	-lem	2c/	.
2BB-/	.	2B-\	.	2c/	pa-	2.d/	.
*lig	*	*lig	*	*	*	*	*
1C	-tri,	1G	.	1e	-tri	.	.
.	.	.	.	.	.	4c/	.
.	.	.	.	.	.	1c\	.
=52-	=52-	=52-	=52-	=52-	=52-	=52-	=52-
*	*	*col	*	*	*	*	*
1D	.	2.F/	.	1d	.	.	.
.	.	.	.	.	.	2B-/	.
.	.	4G/	.	.	.	.	.
*Xlig	*	*Xlig	*	*	*	*	*
*	*	*Xcol	*	*	*	*	*
1C	.	2A/	pa-	2r	.	1c	-ri
*	*	*	*	*	*	*	*Xij
.	.	2G/	-tri,	2e\	per	.	.
=53-	=53-	=53-	=53-	=53-	=53-	=53-	=53-
2r	.	4F/	.	2.f\	quem	1A	.
.	.	4G/	.	.	.	.	.
2D/	per	4A/	.	.	.	.	.
.	.	4B-/	.	4f\	om-	.	.
2C/	que(m)	1c	.	2e\	-ni-	2r	.
2C/	om-	.	.	2c/	-a	2e\	per
=54-	=54-	=54-	=54-	=54-	=54-	=54-	=54-
4BB-/	-(n)i-	1r	.	2.d\	fac-	2.f\	quem
4C/	.	.	.	.	.	.	.
4D/	-a	.	.	.	.	.	.
4E/	.	.	.	4c\	.	4e\	om-
2F\	fac-	2r	.	4d\	-ta	2d/	-ni-
.	.	.	.	4e\	.	.	.
2F\	-ta	2A/	per	2.f\	ſunt;	2c/	-a
=55-	=55-	=55-	=55-	=55-	=55-	=55-	=55-
1BB-	ſunt,	2.B-\	quem	.	.	4d\	fa-
.	.	.	.	4e\	.	4e\	.
.	.	.	.	2d\	.	4f\	.
*	*	*custos:A	*	*	*	*custos:e	*
.	.	4B-\	om-	.	.	4d\	.
*	*	*xywh-#405:1183,570,4384,889	*	*xywh-#209:1399,1421,4124,830	*	*xywh-#18:5762,2183,4302,888	*
!	!	!	!	!	!	!LO:LB:g=original	!
1r	.	2A\	-ni-	2c/	.	4e\	.
.	.	.	.	.	.	4c\	.
.	.	2F/	-a	1d\	.	2f\	-cta
=56-	=56-	=56-	=56-	=56-	=56-	=56-	=56-
2r	.	2G/	fac-	.	.	1e	.
2AA/	per	2A/	-ta	2c/	.	.	.
2.BB-/	que(m)	2.D/	ſunt	2d\	.	00.d	ſunt,
.	.	.	.	2.B-/	fac-	.	.
4AA/	om-	4C/	.	.	.	.	.
=57-	=57-	=57-	=57-	=57-	=57-	=57-	=57-
2GG/	-ni-	4D/	.	.	.	.	.
.	.	4E/	.	4G/	-ta	.	.
2FF/	-a	2F/	.	2A/	.	.	.
*xywh-#577:5691,732,4341,829	*	*	*	*	*	*	*
1GG	fac-	2D/	.	2.B-/	ſunt,	.	.
.	.	2.G/	.	.	.	.	.
.	.	.	.	8A/L	.	.	.
.	.	.	.	8G/J	.	.	.
=58-	=58-	=58-	=58-	=58-	=58-	=58-	=58-
1D	-ta	.	.	1A	.	.	.
.	.	4F/	.	.	.	.	.
.	.	2F/	.	.	.	.	.
1GG	ſunt.	2.G/	.	2r	.	.	.
.	.	.	.	1G/	qui	.	.
.	.	4A/	.	.	.	.	.
=59-	=59-	=59-	=59-	=59-	=59-	=59-	=59-
2r	.	2.B-/	.	.	.	.	.
2GG/	Qui	.	.	2G/	prop-	.	.
.	.	8A/L	.	.	.	.	.
.	.	8G/J	.	.	.	.	.
1.D	.	0F	.	2A/	-ter	2r	.
.	.	.	.	2F/	nos	1d\	Qui
=60-	=60-	=60-	=60-	=60-	=60-	=60-	=60-
.	.	.	.	2A/	ho-	.	.
2D/	prop-	.	.	2B-/	-(m)i-	2d/	prop-
2.C/	-ter	2r	.	1c	-(n)es	2e\	-ter
.	.	1G/	Qui	.	.	2c/	nos
4AA/	nos	.	.	.	.	.	.
=61-	=61-	=61-	=61-	=61-	=61-	=61-	=61-
2BB-/	ho-	.	.	2r	.	2d/	ho-
*	*	*	*	*custos:A	*	*	*
2C/	-(m)i-	2G/	prop-	1c	et	2e\	-(m)i-
*	*	*custos:F	*	*	*	*	*
1FF	-(n)es,	2A/	-ter	.	.	1f	-nes,
*	*	*xywh-#405:1239,1319,4260,844	*	*xywh-#209:1382,2139,4124,864	*	*	*
.	.	2F/	nos	2A/	prop-	.	.
=62-	=62-	=62-	=62-	=62-	=62-	=62-	=62-
2r	.	2G/	ho-	2B-/	-ter	2r	.
1C	et	2A/	-mi-	2.c/	n(os-	1e	et
.	.	1G	-nes,	.	.	.	.
.	.	.	.	4d\	-t)ram	.	.
2C/	prop-	.	.	2e\	ſa-	2g\	prop-
=63-	=63-	=63-	=63-	=63-	=63-	=63-	=63-
2D/	-ter	2r	.	2d\	-lu-	2f\	-ter
2BB-/	n(os-	1G	et	2d\	-te(m)	2d\	n(os-
2C/	-t)ram	.	.	1c	.	2e\	-t)ram
2E/	ſa-	2G/	prop -	.	.	2.g\	ſa-
=64-	=64-	=64-	=64-	=64-	=64-	=64-	=64-
0D	-lu-	2A/	-ter	1.d	ſa-	.	.
*	*	*	*	*	*	*custos:f	*
.	.	.	.	.	.	4f\	.
*	*	*	*	*	*	*xywh-#18:5745,2955,4302,854	*
!	!	!	!	!	!	!LO:LB:g=original	!
.	.	2F/	noſ-	.	.	1f	-lu-
.	.	2A/	-tra(m)	.	.	.	.
.	.	2B-\	ſa-	2d\	-lu-	4e\	-tem,
.	.	.	.	.	.	4d\	.
=65-	=65-	=65-	=65-	=65-	=65-	=65-	=65-
*custos:C	*	*	*	*	*	*	*
0.C	-tem	2.c\	-lu-	2G/	-te(m)	0e	.
.	.	.	.	2G/	de-	.	.
.	.	8B-\L	.	.	.	.	.
.	.	8A\J	.	.	.	.	.
.	.	2G/	-tem	2.c/	-ſcen-	.	.
.	.	2G/	de-	.	.	.	.
.	.	.	.	4B-/	-dit	.	.
=66-	=66-	=66-	=66-	=66-	=66-	=66-	=66-
.	.	2.c\	-ſcen-	2A/	de	2r	.
.	.	.	.	2G/	c(ae)-	2c/	de-
.	.	4B-\	.	.	.	.	.
1r	.	2A/	-dit	2F/	.	2.c/	-ſcen-
.	.	2G/	de	2E/	-lis	.	.
.	.	.	.	.	.	4B-/	-dit
=67-	=67-	=67-	=67-	=67-	=67-	=67-	=67-
2r	.	2F/	.	1.c	.	2A/	de
*xywh-#577:5630,1399,4319,851	*	*	*	*	*	*	*
2C/	de-	2E/	.	.	.	2G/	cae-
*	*	*custos:D	*	*	*	*	*
2.F\	-ſcen-	2A/	.	.	.	2F/	-lis,
*	*	*	*	*	*	*	*ij
*	*	*	*	*custos:A	*	*	*
*	*	*xywh-#405:1278,2073,4238,855	*	*	*	*	*
.	.	1D/	.	2A/	.	2f\	de-
4E\	.	.	.	.	.	.	.
=68-	=68-	=68-	=68-	=68-	=68-	=68-	=68-
*	*	*	*	*xywh-#209:1321,2879,4169,858	*	*	*
2D/	-dit	.	.	1A	.	2.f\	-ſcen-
2C/	de	2E/	.	.	.	.	.
.	.	.	.	.	.	4e\	.
*	*	*lig	*	*	*	*	*
2BB-/	c(ae)-	1F	c(ae)-	2r	.	2d\	-dit
2AA/	.	.	.	2.F/	de-	2c/	de
=69-	=69-	=69-	=69-	=69-	=69-	=69-	=69-
1GG	-lis,	1G	.	.	.	1B-	cae-
.	.	.	.	4E/	.	.	.
.	.	.	.	2E/	-c(ae)-	.	.
*	*	*Xlig	*	*	*	*	*
00FF	.	1C	-lis	2F/	-lis	0A	-lis
.	.	.	.	2F/	.	.	.
=70-	=70-	=70-	=70-	=70-	=70-	=70-	=70-
.	.	2r	.	2.c\	de-	.	.
.	.	2F/	de-	.	.	.	.
.	.	.	.	4B-/	.	.	.
.	.	2.c\	-ſcen-	2.A/	-ſcen-	2r	.
.	.	.	.	.	.	2F/	de-
.	.	4B-\	.	4G/	-dit	.	.
=71-	=71-	=71-	=71-	=71-	=71-	=71-	=71-
.	.	2.A/	-dit	4F/	de	2.c/	-ſcen-
.	.	.	.	4G/	c(ae)-	.	.
.	.	.	.	4A/	-lis-	.	.
.	.	4G/	.	4B-/	.	4B-/	-dit
*	*	*	*	*	*	*custos:G	*
2r	.	2F/	de	1.c	.	2A/	de
*	*	*	*	*	*	*xywh-#19:1042,533,4174,1004	*
!	!	!	!	!	!	!LO:PB:g=original	!
2C/	de-	2E/	c(ae)-	.	.	2G/	cae-
=72-	=72-	=72-	=72-	=72-	=72-	=72-	=72-
2.F\	-ſcen-	2A/	-lis,	.	.	2F/	-lis
*	*	*	*	*	*	*	*Xij
.	.	1D	.	2A/	.	2f\	de-
4E\	.	.	.	.	.	.	.
2D/	-dit	.	.	1A	.	2.f\	-ſcen-
2C/	de	2E/	.	.	.	.	.
.	.	.	.	.	.	4e\	.
=73-	=73-	=73-	=73-	=73-	=73-	=73-	=73-
*	*	*lig	*	*	*	*	*
2BB-/	c(ae)-	1F	.	2r	.	2d/	-dit
2AA/	.	.	.	2A/	-/de-	2c/	.
*	*	*	*	*xywh-#209:5826,685,4399,830	*	*	*
1.GG	-lis	1G	.	1.d	-ſcen-	1.B-	de
*	*	*Xlig	*	*	*	*	*
=74-	=74-	=74-	=74-	=74-	=74-	=74-	=74-
.	.	0D	.	.	.	.	.
2AA/	.	.	.	2c/	-dit/	2c/	.
0BB-	.	.	.	1B-	de	1.d	cae-
=75-	=75-	=75-	=75-	=75-	=75-	=75-	=75-
.	.	0F;	.	1B-	c(ae)-	.	.
.	.	.	.	.	.	4c/	-lis,
.	.	.	.	.	.	4d/	.
!	!	!	!	!	!	!LO:N:vis=00\	!
1FF;	.	.	.	1A;	-lis	1c;<	.
=76||-	=76||-	=76||-	=76||-	=76||-	=76||-	=76||-	=76||-
*xywh-#577:5602,2015,4431,985	*	*	*	*	*	*	*
1r	.	1.c	Et	0r	.	0r	.
1.F	Et	.	.	.	.	.	.
*	*	*custos:A	*	*	*	*	*
.	.	2c\	in-	.	.	.	.
=77-	=77-	=77-	=77-	=77-	=77-	=77-	=77-
*	*	*xywh-#405:1290,2839,4238,838	*	*	*	*	*
.	.	2A/	-car-	0r	.	1.c	Et
2F\	in-	2A/	-na-	.	.	.	.
2C/	-car-	1G	-tus	.	.	.	.
2C/	-na-	.	.	.	.	2c/	in-
=78-	=78-	=78-	=78-	=78-	=78-	=78-	=78-
1D	-tus	1.F	.	1.f	Et	2A/	-car-
*	*	*	*	*	*	*custos:B-	*
.	.	.	.	.	.	2F/	-na-
*	*	*	*	*	*	*xywh-#19:997,1266,4207,1004	*
!	!	!	!	!	!	!LO:LB:g=original	!
0BB-	eſt,	.	.	.	.	2.B-/	.
.	.	4G/	eſt	2f\	in-	.	.
.	.	4A/	.	.	.	4c/	-tus
=79-	=79-	=79-	=79-	=79-	=79-	=79-	=79-
.	.	1B-	.	2d\	-car-	4d\	eſt,
.	.	.	.	.	.	4e\	.
.	.	.	.	2d\	-na-	4f\	.
.	.	.	.	.	.	4d\	.
1C	.	1G	.	1c	-tus	0e	.
=80-	=80-	=80-	=80-	=80-	=80-	=80-	=80-
1r	.	2r	.	1.A	.	.	.
.	.	1c	de	.	.	.	.
1.F	de	.	.	.	.	1r	.
.	.	2c\	ſpi-	4G/	.	.	.
.	.	.	.	4F/	.	.	.
=81-	=81-	=81-	=81-	=81-	=81-	=81-	=81-
.	.	2A/	-ri-	1f	eſt,	2r	.
2F\	ſpi-	2F/	-tu	.	.	1c	de
2C/	-ri-	1G	ſanc-	1e	.	.	.
2C/	-tu	.	.	.	.	2c/	ſpi-
=82-	=82-	=82-	=82-	=82-	=82-	=82-	=82-
1.D	ſanc-	2.F/	-to,	2r	.	2A/	-ri-
.	.	.	.	1f	de	1F	-tu
.	.	4G/	.	.	.	.	.
.	.	4A/	.	.	.	.	.
.	.	4F/	.	.	.	.	.
*	*	*	*	*custos:d	*	*	*
2BB-/	-to,	2.B-\	.	2f\	ſpi-	1f\	ſanc-
=83-	=83-	=83-	=83-	=83-	=83-	=83-	=83-
*	*	*	*	*xywh-#209:5843,1353,4247,880	*	*	*
1D	.	.	.	2d\	-ri-	.	.
.	.	4A/	.	.	.	.	.
.	.	4G/	.	2B-/	-tu	4e\	-to,
*	*	*custos:G	*	*	*	*	*
.	.	4F/	.	.	.	4d\	.
*	*	*xywh-#405:5810,537,4418,985	*	*	*	*	*
1C	.	1G	.	1.c	ſanc-	1e	.
=84-	=84-	=84-	=84-	=84-	=84-	=84-	=84-
2r	.	1.F	ex	.	.	1f	.
2D/	ex	.	.	2A/	-to,	.	.
1.F	Ma-	.	.	2.A/	.	1r	.
.	.	2G/	Ma-	.	.	.	.
.	.	.	.	4B-/	.	.	.
=85-	=85-	=85-	=85-	=85-	=85-	=85-	=85-
.	.	2A/	-ri-	1c	.	1.F	ex
*custos:A	*	*	*	*	*	*	*
2G\	-ri-	2B-/	-a	.	.	.	.
*xywh-#577:5563,2872,4375,974	*	*	*	*	*	*	*
*clefF3	*	*	*	*	*	*	*
2A\	-a	1c	.	1r	.	.	.
2B-\	vir-	.	.	.	.	2G/	Ma-
=86-	=86-	=86-	=86-	=86-	=86-	=86-	=86-
2.c\	-gi-	1r	.	1F	ex	2A/	-ri-
.	.	.	.	.	.	2B-/	-a
4B-\	.	.	.	.	.	.	.
*	*	*	*	*	*	*custos:d	*
4A\	-ne,	1.F	ex	1.A	Ma-	1c	uir-
4G\	.	.	.	.	.	.	.
1F\	.	.	.	.	.	.	.
=87-	=87-	=87-	=87-	=87-	=87-	=87-	=87-
*	*	*	*	*	*	*xywh-#19:942,2010,4368,954	*
!	!	!	!	!	!	!LO:LB:g=original	!
.	.	.	.	.	.	2d\	-gi-
2E/	.	2G/	Ma-	4B-/	-ri-	2e\	-ne,
.	.	.	.	4c/	.	.	.
1D	.	2A/	-ri-	2d\	-a	1f	.
.	.	2B-\	-a	2d\	vir-	.	.
=88-	=88-	=88-	=88-	=88-	=88-	=88-	=88-
1C	.	2.c\	vir-	2G/	-gi-	0e	.
.	.	.	.	2G/	-ne,	.	.
.	.	4B-\	-gi-	.	.	.	.
2r	.	2A/	-ne,	1c	.	.	.
2C/	Et	2G/	.	.	.	.	.
=89-	=89-	=89-	=89-	=89-	=89-	=89-	=89-
1D	ho-	2.F/	.	1A	.	2r	.
.	.	.	.	.	.	2f\	Et
.	.	8E/L	.	.	.	.	.
.	.	8D/J	.	.	.	.	.
0C	-mo	2E/	.	1r	.	1g	ho-
.	.	1G/	.	.	.	.	.
=90-	=90-	=90-	=90-	=90-	=90-	=90-	=90-
.	.	.	.	2r	.	1e	-mo
*	*	*	*	*custos:d	*	*	*
.	.	4F/	.	2c/	Et	.	.
*	*	*custos:D	*	*	*	*	*
.	.	4E/	.	.	.	.	.
*	*	*xywh-#405:5782,1358,4244,855	*	*xywh-#209:5804,2133,4191,852	*	*	*
1r	.	1D	.	1d	ho-	1f	fac-
=91-	=91-	=91-	=91-	=91-	=91-	=91-	=91-
1r	.	2r	.	1B-	-mo	1d	-tus
.	.	1G	Et	.	.	.	.
1C	Et	.	.	1c	fac-	1e	eſt,
.	.	1A\	ho-	.	.	.	.
=92-	=92-	=92-	=92-	=92-	=92-	=92-	=92-
1D	ho-	.	.	1A	-tus	2r	.
*	*	*	*	*	*	*	*ij
.	.	1F	-mo	.	.	1f	et
1BB-	-mo	.	.	1B-	eſt,	.	.
.	.	2.G/	fac-	.	.	2d\	ho-
=93-	=93-	=93-	=93-	=93-	=93-	=93-	=93-
!LO:TX:t=P:problem=poprawka wysokości	!	!	!	!	!	!	!
1.C	fac-	.	.	2r	.	2e\	.
.	.	4F/	.	.	.	.	.
.	.	4E/	-tus	2G/	Et	1c	-mo
.	.	4D/	.	.	.	.	.
.	.	2E/	.	1A	ho-	.	.
*custos:BB-	*	*	*	*	*	*	*
2AA/	-tus	2C/	eſt;	.	.	2.f\	fac-
*clefF4	*	*	*	*	*	*	*
=94-	=94-	=94-	=94-	=94-	=94-	=94-	=94-
*xywh-#578:1088,627,4319,834	*	*	*	*	*	*	*
2BB-/	.	2D/	.	1G	-mo	.	.
.	.	.	.	.	.	4e\	.
2C/	.	2E/	.	.	.	2e\	.
0FF	eſt:	1C	.	2.F/	fac -	2.f\	-tus
*	*	*	*	*	*	*custos:d	*
.	.	.	.	4G/	.	4e\	.
=95-	=95-	=95-	=95-	=95-	=95-	=95-	=95-
*	*	*	*	*	*	*xywh-#19:914,2732,4274,1038	*
!	!	!	!	!	!	!LO:LB:g=original	!
.	.	1.F	.	4A/	-tus	2d\	.
.	.	.	.	4B-/	.	.	.
.	.	.	.	4c/	eſt	2c\	.
.	.	.	.	4A/	.	.	.
1.BB-	/fac-	.	.	1.B-	/fac-	0d	eſt
*	*	*	*	*	*	*	*Xij
.	.	4E/	.	.	.	.	.
.	.	4D/	.	.	.	.	.
=96-	=96-	=96-	=96-	=96-	=96-	=96-	=96-
.	.	2G/	.	.	.	.	.
2BB-/	-tus	2F/	.	2B-/	-tus	.	.
*	*	*custos:G	*	*	*	*	*
!	!	!	!	!LO:TX:b:t=Crucifixus\ntacet&colon;	!	!LO:N:vis=00	!
1FF;	eſt/	1F;	.	1A;	eſt/	1c;<\	.
=97-	=97-	=97-	=97-	=97-	=97-	=97-	=97-
*	*	*xywh-#405:5748,2073,4266,861	*	*	*	*	*
0r	.	1G	Cru-	0ryy	.	1r	.
.	.	1A	-ci-	.	.	1c	Cru-
=98-	=98-	=98-	=98-	=98-	=98-	=98-	=98-
1r	.	1G	-fi-	0ryy	.	1d	-ci-
1C	Cru-	1E	-xus,	.	.	1c	-fi-
=99-	=99-	=99-	=99-	=99-	=99-	=99-	=99-
1D	-ci-	1r	.	0ryy	.	1A	-xus
1C	-fi-	1G	cru-	.	.	1r	.
=100-	=100-	=100-	=100-	=100-	=100-	=100-	=100-
*	*	*	*	*	*	*	*ij
1AA	-xus,	1A	-ci-	0ryy	.	1c	Cru-
1r	.	1G	-fi-	.	.	1d	-ci-
=101-	=101-	=101-	=101-	=101-	=101-	=101-	=101-
1C	cru-	1E	-xus,	0ryy	.	1c	-fi-
1D	-ci-	2r	.	.	.	1A	-xus
*	*	*	*	*	*	*	*Xij
.	.	2F/	e-	.	.	.	.
=102-	=102-	=102-	=102-	=102-	=102-	=102-	=102-
1C	-fi-	2G/	-ti-	0ryy	.	2r	.
.	.	1E	-a(m)	.	.	1c	e-
1AA	-xus,	.	.	.	.	.	.
.	.	2F/	pro	.	.	2A/	-ti-
=103-	=103-	=103-	=103-	=103-	=103-	=103-	=103-
*custos:C	*	*	*	*	*	*	*
2BB-/	e-	1G	no-	0ryy	.	2d\	-am
*	*	*	*	*	*	*custos:d	*
*xywh-#578:1133,1417,4263,778	*	*	*	*	*	*	*
2C/	-ti-	.	.	.	.	1c	pro
2AA/	-am	0.A	-bis	.	.	.	.
*	*	*	*	*	*	*xywh-#19:5650,611,4368,993	*
!	!	!	!	!	!	!LO:LB:g=original	!
1D\	pro	.	.	.	.	1d\	no -
=104-	=104-	=104-	=104-	=104-	=104-	=104-	=104-
.	.	.	.	0ryy	.	.	.
2C/	.	.	.	.	.	2e\	-bis,
1D	no-	.	.	.	.	2.f\	.
.	.	.	.	.	.	8e\L	.
.	.	.	.	.	.	8d\J	.
=105-	=105-	=105-	=105-	=105-	=105-	=105-	=105-
1C	-bis,	2r	.	0ryy	.	1e	.
.	.	2A/	ſub	.	.	.	.
2.BB-/	.	1B-	Pon-	.	.	2r	.
.	.	.	.	.	.	2d\	ſub
4C/	.	.	.	.	.	.	.
=106-	=106-	=106-	=106-	=106-	=106-	=106-	=106-
1D	.	2A/	-ti-	0ryy	.	1f	Pon-
*	*	*custos:G	*	*	*	*	*
.	.	2F/	-o	.	.	.	.
*	*	*xywh-#405:5793,2811,4255,928	*	*	*	*	*
1C	.	2G/	Pi-	.	.	2e\	-ti-
.	.	2A/	-la-	.	.	2c/	-o
=107-	=107-	=107-	=107-	=107-	=107-	=107-	=107-
1r	.	1B-	-to,	0ryy	.	2d/	.
.	.	.	.	.	.	2.f\	Pi-
*lig	*	*	*	*	*	*	*
1D	ſub	2A/	.	.	.	.	.
.	.	.	.	.	.	4e\	-la-
.	.	2F/	.	.	.	1d\	-to,
=108-	=108-	=108-	=108-	=108-	=108-	=108-	=108-
1E-X	.	2.G/	.	0ryy	.	.	.
*	*	*	*	*	*	*	*ij
.	.	.	.	.	.	2c/	ſub
.	.	4A/	.	.	.	.	.
*Xlig	*	*	*	*	*	*	*
2D/	Pon-	2.B-/	.	.	.	4d\	Pon-
.	.	.	.	.	.	4e\	.
2BB-/	-ti-	.	.	.	.	4f\	.
.	.	4A/	.	.	.	4d\	.
=109-	=109-	=109-	=109-	=109-	=109-	=109-	=109-
*	*	*	*	*	*	*custos:f	*
2C/	-o	2G/	.	0ryy	.	2e\	-ti-
*	*	*	*	*	*	*xywh-#19:5644,1460,4307,854	*
!	!	!	!	!	!	!LO:LB:g=original	!
2D/	Pi-	2F/	.	.	.	4f\	-o
.	.	.	.	.	.	4e\	.
2BB-/	-la-	1G	.	.	.	4d\	.
.	.	.	.	.	.	4c\	.
2.E\	-to,	.	.	.	.	1B-/	Pi-
=110-	=110-	=110-	=110-	=110-	=110-	=110-	=110-
.	.	00G	.	0ryy	.	.	.
4D\	.	.	.	.	.	.	.
2.C/	.	.	.	.	.	2c/	.
.	.	.	.	.	.	1d	-la-
*custos:BB-	*	*	*	*	*	*	*
4BB-/	.	.	.	.	.	.	.
*xywh-#578:1138,2145,4263,795	*	*	*	*	*	*	*
2BB-/	.	.	.	.	.	.	.
=111-	=111-	=111-	=111-	=111-	=111-	=111-	=111-
1C	.	.	.	0ryy	.	2c/	-to
*	*	*	*	*	*	*	*Xij
.	.	.	.	.	.	2e-X\	Paſ-
2r	.	.	.	.	.	2d\	.
1E-X\	Paſ-	.	.	.	.	2B-/	-sus
=112-	=112-	=112-	=112-	=112-	=112-	=112-	=112-
.	.	2r	.	0ryy	.	2c/	et
2D/	-sus	1B-	paſ-	.	.	1d	ſe-
2BB-/	.	.	.	.	.	.	.
2C/	et	2A/	-sus	.	.	2c/	-pul-
=113-	=113-	=113-	=113-	=113-	=113-	=113-	=113-
2D/	ſe-	2F/	.	0ryy	.	2A/	-tus
2BB-/	-pul-	2.G/	et	.	.	2.d\	eſt.
2.C/	-tus	.	.	.	.	.	.
.	.	4F/	ſe-	.	.	4c/	.
.	.	2E/	-pul-	.	.	2.c/	.
4BB-/	sſt,	.	.	.	.	.	.
=114-	=114-	=114-	=114-	=114-	=114-	=114-	=114-
1GG	.	1D	-tus-	0ryy	.	.	.
!	!	!	!	!	!	!LO:SIC:v:s=4Bn/	!
.	.	.	.	.	.	4B-/	.
!	!	!	!	!	!	!LO:SIC:v:s=2Bn/	!
.	.	.	.	.	.	2B-/	.
*	*	*custos:G	*	*	*	*	*
0C	.	2C/	-eſt	.	.	00c	.
*	*	*xywh-#406:1144,527,4336,952	*	*	*	*	*
.	.	1G/	Et	.	.	.	.
=115-	=115-	=115-	=115-	=115-	=115-	=115-	=115-
.	.	.	.	0ryy	.	.	.
.	.	2G/	re-	.	.	.	.
2r	.	2A/	-ſur-	.	.	.	.
1C/	Et	2G/	-re-	.	.	.	.
=116-	=116-	=116-	=116-	=116-	=116-	=116-	=116-
.	.	2E/	-xit-	0ryy	.	.	.
2C/	re-	2.A/	-ter-	.	.	.	.
*	*	*	*	*	*	*custos:c	*
2D/	-ſu-	.	.	.	.	2r	.
.	.	4F/	-ri-	.	.	.	.
*	*	*	*	*	*	*xywh-#19:5633,2193,4330,854	*
!	!	!	!	!	!	!LO:LB:g=original	!
2C/	-re-	2G/	-a	.	.	1c\	Et
=117-	=117-	=117-	=117-	=117-	=117-	=117-	=117-
2AA/	-xit	4A/	di-	0ryy	.	.	.
.	.	4B-/	.	.	.	.	.
2F\	.	4c\	.	.	.	2c/	re-
.	.	4A\	.	.	.	.	.
*custos:E	*	*	*	*	*	*	*
2D/	.	2B-\	.	.	.	2d\	-ſur-
*xywh-#578:1189,2851,4229,840	*	*	*	*	*	*	*
2E\	ter-	2.c\	-e,	.	.	2c/	-rex-
=118-	=118-	=118-	=118-	=118-	=118-	=118-	=118-
2.F\	-ti-	.	.	0ryy	.	2A/	-it
.	.	4B-\	.	.	.	.	.
.	.	4A/	.	.	.	2.f\	ter-
4E\	-a	4G/	.	.	.	.	.
4D/	.	2A/	.	.	.	.	.
4C/	.	.	.	.	.	4eny\	-ti-
2.BB-/	di-	2.B-\	.	.	.	4d\	-a
.	.	.	.	.	.	4c\	.
=119-	=119-	=119-	=119-	=119-	=119-	=119-	=119-
.	.	.	.	0ryy	.	4d\	di-
4C/	-e,	4A/	.	.	.	4e\	.
2D/	.	4G/	.	.	.	2.f\	-e,
*	*	*custos:G	*	*	*	*	*
.	.	4F/	.	.	.	.	.
*	*	*xywh-#406:1218,1345,4282,884	*	*	*	*	*
1C	.	1G	.	.	.	.	.
.	.	.	.	.	.	4e\	.
.	.	.	.	.	.	2e\	.
=120-	=120-	=120-	=120-	=120-	=120-	=120-	=120-
2r	.	1F	.	0ryy	.	1f	.
1D	ſe-	.	.	.	.	.	.
.	.	2r	.	.	.	1r	.
2E\	-cun-	2G/	ſe-	.	.	.	.
=121-	=121-	=121-	=121-	=121-	=121-	=121-	=121-
2F\	-dum	2A/	-cun-	0ryy	.	2r	.
2G\	.	2B-\	-dum	.	.	2d\	ſe-
2E\	ſcrip-	2c\	.	.	.	2e\	-cun-
2D/	-tu-	2A/	ſcri-	.	.	2f\	-du(m)
=122-	=122-	=122-	=122-	=122-	=122-	=122-	=122-
2.E\	-raS.	4G/	-ptu-	0ryy	.	2g\	ſceip-
.	.	4A/	.	.	.	.	.
*	*	*	*	*	*	*custos:d	*
.	.	4B-\	-ras,	.	.	2e\	-tu-
4F\	.	4A/	.	.	.	.	.
*custos:D	*	*	*	*	*	*	*
*	*	*	*	*	*	*xywh-#19:5650,2965,4291,827	*
!	!	!	!	!	!	!LO:LB:g=original	!
2G\	.	2.B-\	.	.	.	2.d\	-ras,
*xywh-#578:5681,644,4347,879	*	*	*	*	*	*	*
2.D/	ſcrip-	.	.	.	.	.	.
.	.	8A/L	.	.	.	4c\	.
.	.	8G/J	.	.	.	.	.
=123-	=123-	=123-	=123-	=123-	=123-	=123-	=123-
.	.	2.F/	.	0ryy	.	4d\	.
4C/	.	.	.	.	.	4e\	.
4D/	-tu-	.	.	.	.	2.f\	.
4E/	.	4G/	.	.	.	.	.
2F\	-ras,	2A/	.	.	.	.	.
.	.	.	.	.	.	4e\	.
4BB-/	.	1B-\	.	.	.	1d\	.
4C/	.	.	.	.	.	.	.
=124-	=124-	=124-	=124-	=124-	=124-	=124-	=124-
4D\	.	.	.	0ryy	.	.	.
4E\	.	.	.	.	.	.	.
2.F\	.	2.A/	.	.	.	2c/	.
.	.	.	.	.	.	1B-	.
4E\	.	4G/	.	.	.	.	.
*	*	*custos:A	*	*	*	*	*
2E\	.	2G/	.	.	.	.	.
=125-	=125-	=125-	=125-	=125-	=125-	=125-	=125-
*	*	*xywh-#406:1238,2067,4248,864	*	*	*	*	*
1F	.	2.A/	.	0ryy	.	2A/	Et
.	.	.	.	.	.	2F/	a-
.	.	4B-/	.	.	.	.	.
2r	.	1c	.	.	.	2.A/	-ſcen-
2F\	Et	.	.	.	.	.	.
.	.	.	.	.	.	4B-/	.
=126-	=126-	=126-	=126-	=126-	=126-	=126-	=126-
2.A\	aſ-	2r	.	0ryy	.	1c	-dit,
.	.	2F/	Et	.	.	.	.
4B-\	-cen-	.	.	.	.	.	.
*col	*	*	*	*	*	*	*
2.c\	.	2.A/	a-	.	.	2r	.
.	.	.	.	.	.	2F/	Et
4B-\	.	4B-\	.	.	.	.	.
*Xcol	*	*	*	*	*	*	*
=127-	=127-	=127-	=127-	=127-	=127-	=127-	=127-
4A\	-dit	2.c\	-ſcen-	0ryy	.	2.A/	a-
*custos:F	*	*	*	*	*	*	*
4G\	.	.	.	.	.	.	.
*xywh-#578:5591,1372,4324,957	*	*	*	*	*	*	*
2.F\	in	.	.	.	.	.	.
.	.	4B-\	.	.	.	4B-/	.
.	.	4A/	-dit	.	.	2c/	-ſcen-
4E/	.	4G/	.	.	.	.	.
4D/	.	4F/	.	.	.	1d\	-dit
4C/	c(ae)-	4E/	.	.	.	.	.
=128-	=128-	=128-	=128-	=128-	=128-	=128-	=128-
2BB-/	-lum,	4D/	.	0ryy	.	.	.
.	.	4C/	in	.	.	.	.
*	*	*	*	*	*	*custos:B-	*
2AA/	.	2.F/	c(ae)-	.	.	2c/	in
*	*	*	*	*	*	*xywh-#20:876,532,4374,949	*
!	!	!	!	!	!	!LO:PB:g=original	!
1GG	.	.	.	.	.	2.B-/	cae-
.	.	4E/	.	.	.	.	.
.	.	2E/	-lum,	.	.	.	.
.	.	.	.	.	.	8A/L	.
.	.	.	.	.	.	8G/J	.
=129-	=129-	=129-	=129-	=129-	=129-	=129-	=129-
1FF	.	0F	.	0ryy	.	2A/	-lum,
.	.	.	.	.	.	2F/	.
2r	.	.	.	.	.	0f	.
2FF/	ſe-	.	.	.	.	.	.
=130-	=130-	=130-	=130-	=130-	=130-	=130-	=130-
2BB-/	-det	2r	.	0ryy	.	.	.
2AA/	ad	2C/	ſe-	.	.	.	.
2BB-/	dex-	2F/	-det	.	.	2r	.
*	*	*custos:F	*	*	*	*	*
2C/	.	2E/	ad	.	.	2c/	ſe-
=131-	=131-	=131-	=131-	=131-	=131-	=131-	=131-
*	*	*xywh-#406:1259,2837,4295,932	*	*	*	*	*
2D/	-te-	2F/	dex-	0ryy	.	2f\	-det
2C/	-ra(m)	2G/	-te-	.	.	2e\	ad
1.F	pa-	2A/	-ram	.	.	2.f\	dex-
.	.	4F/	.	.	.	.	.
.	.	4G/	.	.	.	4e\	-te-
=132-	=132-	=132-	=132-	=132-	=132-	=132-	=132-
.	.	4A/	.	0ryy	.	2d\	-ram
.	.	4B-\	pa-	.	.	.	.
2E\	-tris,	1c	-tris,	.	.	2c/	pa-
1D	.	.	.	.	.	2d/	.
.	.	2B-\	.	.	.	2d/	-tris,
=133-	=133-	=133-	=133-	=133-	=133-	=133-	=133-
0C	.	1c	.	0ryy	.	1G	.
.	.	2G/	et	.	.	2r	.
.	.	2A/	i-	.	.	2c/	Et
=134-	=134-	=134-	=134-	=134-	=134-	=134-	=134-
2r	.	2G/	-te-	0ryy	.	2d/	i-
*custos:D	*	*	*	*	*	*custos:A	*
2C/	Et	2E/	-rum,	.	.	2c/	-te-
*xywh-#578:5675,2162,4218,918	*	*	*	*	*	*xywh-#20:876,1371,4341,866	*
2D/	i-	2r	.	.	.	2A/	-rum,
2C/	-te-	2G/	ven-	.	.	2r	.
=135-	=135-	=135-	=135-	=135-	=135-	=135-	=135-
2AA/	-rum	2A/	-tu-	0ryy	.	2c/	ven-
2r	.	2G/	-rus	.	.	2d\	-tu-
2C/	ven-	2E/	eſt,	.	.	2c/	-rus
2D/	-tu-	2r	.	.	.	2A/	eſt,
=136-	=136-	=136-	=136-	=136-	=136-	=136-	=136-
2C/	-rus	2G/	cu(m)	0ryy	.	2r	.
2AA/	eſt,	2A/	glo-	.	.	2c/	cum
*	*	*custos:E	*	*	*	*	*
2r	.	2G/	-ri-	.	.	2d\	.
*	*	*xywh-#406:5858,514,4363,891	*	*	*	*	*
2C/	cu(m)	2E/	-a	.	.	2c/	glo-
=137-	=137-	=137-	=137-	=137-	=137-	=137-	=137-
2D/	glo-	2F/	iu-	0ryy	.	2.A/	-ri-
2C/	-ri-	2G/	-di-	.	.	.	.
.	.	.	.	.	.	4B-/	-a
2.AA/	-a	2.A/	-ca-	.	.	2c/	iu-
.	.	.	.	.	.	2d\	-di-
4BB-/	iu-	8G/L	-re	.	.	.	.
.	.	8F/J	.	.	.	.	.
=138-	=138-	=138-	=138-	=138-	=138-	=138-	=138-
2C/	-di-	2E/	.	0ryy	.	2c/	-ca-
2D/	-ca-	2F/	ui-	.	.	2f\	-re
2C/	-re	2.c\	-uos	.	.	2e\	ui-
1F\	ui-	.	.	.	.	2c/	-uos
.	.	4B-\	.	.	.	.	.
=139-	=139-	=139-	=139-	=139-	=139-	=139-	=139-
.	.	2A/	et	0ryy	.	2d\	et
2E\	-uos	2G/	.	.	.	2e\	mor-
*	*	*	*	*	*	*custos:F	*
2.D/	et	2.F/	.	.	.	2f\	-tu-
*	*	*	*	*	*	*xywh-#20:915,2137,4352,860	*
.	.	.	.	.	.	2F/	-oa,
*custos:BB-	*	*	*	*	*	*	*
4C/	.	4E/	.	.	.	.	.
=140-	=140-	=140-	=140-	=140-	=140-	=140-	=140-
*xywh-#578:5625,2879,4319,873	*	*	*	*	*	*	*
2BB-/	mor-	4D/	.	0ryy	.	2G/	.
.	.	4C/	.	.	.	.	.
2AA/	-tu-	2.F/	mor-	.	.	2A/	.
1GG	-os,	.	.	.	.	2B-/	.
.	.	4E/	.	.	.	.	.
.	.	2E/	-tu-	.	.	2G/	.
=141-	=141-	=141-	=141-	=141-	=141-	=141-	=141-
2.FF/	.	2.F/	-os,	0ryy	.	1A	.
4GG/	.	8E/L	.	.	.	.	.
.	.	8D/J	.	.	.	.	.
*	*	*custos:C	*	*	*	*	*
4AA/	.	1C	.	.	.	2r	.
4BB-/	.	.	.	.	.	.	.
1C/	.	.	.	.	.	1c\	cu-
=142-	=142-	=142-	=142-	=142-	=142-	=142-	=142-
*	*	*xywh-#406:5811,1324,4241,817	*	*	*	*	*
.	.	0r	.	0ryy	.	.	.
2D/	.	.	.	.	.	2A/	-ius
1BB-	cu-	.	.	.	.	2B-/	re-
.	.	.	.	.	.	2G/	-gni
=143-	=143-	=143-	=143-	=143-	=143-	=143-	=143-
2AA/	-ius	1c	cu-	0ryy	.	2A/	non
1F	re-	.	.	.	.	2F/	e-
.	.	2A\	-ius	.	.	1f	-rit
2D/	-gni	2B-\	.	.	.	.	.
=144-	=144-	=144-	=144-	=144-	=144-	=144-	=144-
2E/	.	2G/	re-	0ryy	.	1e	fi-
2C/	non	2A/	-gni	.	.	.	.
2D/	e-	2F/	non	.	.	1d	-nis
2BB-/	-rit	2.G/	e-	.	.	.	.
=145-	=145-	=145-	=145-	=145-	=145-	=145-	=145-
2.C/	.	.	.	0ryy	.	2r	.
.	.	4F/	-rit	.	.	.	.
.	.	4E/	.	.	.	2G/	/cu-
4BB-/	.	4D/	.	.	.	.	.
2AA/	.	2C/	.	.	.	2A/	.
*custos:GG	*	*	*	*	*	*	*
2BB-/	.	2.F/	fi -	.	.	2F/	-ius
=146-	=146-	=146-	=146-	=146-	=146-	=146-	=146-
*xywh-#579:1085,636,4324,941	*	*	*	*	*	*	*
*	*	*	*	*	*	*custos:A	*
1GG	fi-	.	.	0ryy	.	1G	re-
.	.	4E/	.	.	.	.	.
.	.	2E/	-nis,	.	.	.	.
*	*	*	*	*	*	*xywh-#20:965,2914,4274,854	*
0FF	-nis;	2.F/	.	.	.	2A/	.
.	.	.	.	.	.	1c\	.
.	.	4G/	.	.	.	.	.
=147-	=147-	=147-	=147-	=147-	=147-	=147-	=147-
.	.	4A\	.	0ryy	.	.	.
.	.	4B-\	.	.	.	.	.
.	.	4c\	.	.	.	2A/	-gni
*	*	*custos:d	*	*	*	*	*
.	.	4A\	.	.	.	.	.
*	*	*xywh-#406:5790,2034,4302,830	*	*	*	*	*
1BB-	cu-	1d	.	.	.	2B-/	.
.	.	.	.	.	.	2G/	.
=148-	=148-	=148-	=148-	=148-	=148-	=148-	=148-
2AA/	-ius	2r	.	0ryy	.	2A/	non
1F	re-	2c\	cu-	.	.	2F/	e-
.	.	2A\	-ius	.	.	1f	-rit
2D/	-gni	2B-\	.	.	.	.	.
=149-	=149-	=149-	=149-	=149-	=149-	=149-	=149-
2E/	.	2G/	re-	0ryy	.	1e	fi-
2C/	non	2A/	-gni	.	.	.	.
2D/	e-	2F/	non	.	.	1d	-nis/
2BB-/	-rit	1G/	e-	.	.	.	.
=150-	=150-	=150-	=150-	=150-	=150-	=150-	=150-
2.C/	fi-	.	.	0ryy	.	2r	.
.	.	2E/	-rit	.	.	2G/	non
4BB-/	.	.	.	.	.	.	.
2AA/	-nis	2.F/	.	.	.	2A/	e-
2.BB-/	.	.	.	.	.	2F/	-rit
.	.	4E/	.	.	.	.	.
=151-	=151-	=151-	=151-	=151-	=151-	=151-	=151-
.	.	4D/	.	0ryy	.	1.B-	fi-
4AA/	.	4C/	.	.	.	.	.
4GG/	.	2.F/	fi-	.	.	.	.
4FF/	.	.	.	.	.	.	.
1GG	.	.	.	.	.	.	.
.	.	4E/	.	.	.	.	.
.	.	2E/	-nis;	.	.	4A/	-nis,
.	.	.	.	.	.	4G/	.
=152-	=152-	=152-	=152-	=152-	=152-	=152-	=152-
*custos:FF	*	*custos:C	*	*	*	*custos:F	*
0FF;	.	0F;	.	0ryy	.	0A;	.
*xywh-#579:1035,1466,4380,817	*	*xywh-#406:5750,2756,4343,952	*	*	*	*	*
=153||-	=153||-	=153||-	=153||-	=153||-	=153||-	=153||-	=153||-
*	*	*	*	*xywh-#209:5826,2879,4320,841	*	*xywh-#20:5667,521,4346,977	*
0r	.	0r	.	0r	.	1F	Et
.	.	.	.	.	.	2c/	in
.	.	.	.	.	.	2c/	ſpi-
=154-	=154-	=154-	=154-	=154-	=154-	=154-	=154-
0r	.	0r	.	1r	.	1d	-ri-
.	.	.	.	1F	Et	2.c/	-tum
.	.	.	.	.	.	4B-/	.
=155-	=155-	=155-	=155-	=155-	=155-	=155-	=155-
0r	.	1C	Et	2c/	in	2A/	ſanc-
.	.	.	.	2c/	ſpi-	2G/	.
.	.	2G/	in	1d	-ri-	2.B-/	-tum
.	.	2G/	ſpi-	.	.	.	.
.	.	.	.	.	.	4A/	.
=156-	=156-	=156-	=156-	=156-	=156-	=156-	=156-
1FF	Et	1A	-ri-	1c	-tum	1F	.
2C/	in	1G	.	2.c/	ſanc-	1r	.
2C/	ſpi-	.	.	.	.	.	.
.	.	.	.	4B-/	.	.	.
=157-	=157-	=157-	=157-	=157-	=157-	=157-	=157-
1D	-ri-	2.F/	-tum	2.A/	-tum	2r	.
.	.	.	.	.	.	2F/	ſanc-
.	.	8E/L	.	8G/L	.	.	.
.	.	8D/J	.	8F/J	.	.	.
2C/	-tum	2E/	.	2G/	do-	2c/	-tu(m)
2AA/	.	2F/	.	2A/	-mi-	2c/	do-
=158-	=158-	=158-	=158-	=158-	=158-	=158-	=158-
*	*	*	*	*custos:F	*	*	*
2.BB-/	ſanc-	2.D/	.	1F	-num,	1d	.
4AA/	.	4E/	.	.	.	.	.
*	*	*	*	*xywh-#210:1230,509,4079,920	*	*	*
1FF	-tum	1F	.	2r	.	2.c/	-mi-
.	.	.	.	2F/	ſanc-	.	.
.	.	.	.	.	.	4B-/	.
=159-	=159-	=159-	=159-	=159-	=159-	=159-	=159-
0r	.	2r	.	2c/	-tu(m)	2A/	-num
*	*	*	*	*	*	*custos:B-	*
.	.	2C/	ſanc-	2c/	do-	2G/	.
*	*	*	*	*	*	*xywh-#20:5695,1259,4291,921	*
.	.	2G/	.	1d	-mi-	2.B-/	.
.	.	2G/	-tu(m)	.	.	.	.
.	.	.	.	.	.	4A/	.
=160-	=160-	=160-	=160-	=160-	=160-	=160-	=160-
*	*	*lig	*	*	*	*	*
2r	.	1A	do-	1c	-(num)	1F	.
2FF/	ſanc-	.	.	.	.	.	.
*	*	*col	*	*	*	*	*
2C/	-tu(m)	2.G/	.	2r	.	1r	.
2C/	do-	.	.	2c/	et	.	.
*	*	*Xlig	*	*	*	*	*
.	.	8F/L	-mi-	.	.	.	.
.	.	8E/J	.	.	.	.	.
*	*	*Xcol	*	*	*	*	*
=161-	=161-	=161-	=161-	=161-	=161-	=161-	=161-
*	*	*xywh-#407:1222,455,4283,985	*	*	*	*	*
1D	-mi-	1F	-nu(m)	2A/	ui-	2r	.
.	.	.	.	2F/	.	2f\	et
1C	-nu(m),	1E	.	2.c/	-ui-	2g\	ui-
.	.	.	.	.	.	2e\	-ui-
.	.	.	.	4B-/	-fi-	.	.
=162-	=162-	=162-	=162-	=162-	=162-	=162-	=162-
2r	.	2r	.	2A/	-can-	1f	-fi-
2BB-/	et	2D/	et	2B-/	.	.	.
2C/	ui-	2E/	ui-	2G/	.	1e	-can-
2AA/	-ui-	2C/	-ui-	2A/	.	.	.
=163-	=163-	=163-	=163-	=163-	=163-	=163-	=163-
*	*	*	*	*lig	*	*	*
1BB-	-fi-	2D/	-fi-	1F	-tem,	2.d\	.
.	.	2.F/	-can-	.	.	.	.
.	.	.	.	.	.	4c\	.
*custos:FF	*	*	*	*	*	*	*
1GG	-can-	.	.	1G	.	2.B-/	.
.	.	4E/	.	.	.	.	.
.	.	2E/	-tem;	.	.	.	.
.	.	.	.	.	.	8A/L	.
.	.	.	.	.	.	8G/J	.
*	*	*	*	*Xlig	*	*	*
=164-	=164-	=164-	=164-	=164-	=164-	=164-	=164-
*xywh-#579:1169,2211,4291,823	*	*	*	*	*	*	*
1FF	-tem,	0F	.	2r	.	2A/	.
.	.	.	.	2c/	qui	2F/	.
2r	.	.	.	2d\	ex	0f	-tem,
2BB-/	qui	.	.	2d\	p(at)-	.	.
=165-	=165-	=165-	=165-	=165-	=165-	=165-	=165-
*	*	*	*	*lig	*	*	*
2BB-/	ex	2r	.	1B-	-re	.	.
2BB-/	pa-	2F/	qui	.	.	.	.
*	*	*	*	*custos:B-	*	*	*
2AA/	-tre	2F/	ex	1c	.	1r	.
2FF/	fi-	2F/	pa-	.	.	.	.
*	*	*	*	*Xlig	*	*	*
=166-	=166-	=166-	=166-	=166-	=166-	=166-	=166-
2GG/	-li-	2E/	-tre	0r	.	0r	.
2AA/	-o-	2C/	fi-	.	.	.	.
2BB-/	-q(ue)	2D/	-li-	.	.	.	.
2C/	pro-	2E/	-o-	.	.	.	.
=167-	=167-	=167-	=167-	=167-	=167-	=167-	=167-
2AA/	-ce-	2F/	-q(ue)	1r	.	0r	.
2.BB-/	-dit,	2.G/	pro-	.	.	.	.
.	.	.	.	2r	.	.	.
*	*	*custos:F	*	*	*	*	*
4AA/	.	4F/	.	.	.	.	.
*	*	*xywh-#407:1205,1209,4249,985	*	*xywh-#210:1263,1334,4051,813	*	*	*
4GG/	.	2.F/	.	2B-/	qui	.	.
4FF/	.	.	.	.	.	.	.
=168-	=168-	=168-	=168-	=168-	=168-	=168-	=168-
1GG	.	.	.	2B-/	cum	1r	.
.	.	4E/	-ce-	.	.	.	.
.	.	2E/	-dit,	2B-/	pa-	.	.
0FF	.	0F	.	4A/	.	2r	.
.	.	.	.	4G/	.	.	.
.	.	.	.	4A/	-tre	2f\	Qui
.	.	.	.	4B-/	.	.	.
=169-	=169-	=169-	=169-	=169-	=169-	=169-	=169-
*	*	*	*	*	*	*custos:f	*
.	.	.	.	2c/	.	2f\	cu(m)
*	*	*	*	*	*	*xywh-#20:5739,2036,4313,904	*
.	.	.	.	2F/	et	2f\	p(at)-
1r	.	1r	.	2G/	fi-	2e\	-re
.	.	.	.	2A/	-li-	2c/	et
=170-	=170-	=170-	=170-	=170-	=170-	=170-	=170-
1r	.	2r	.	2B-/	-o	2d\	fi-
.	.	2C/	ſi-	2c/	ſi-	2e\	-li-
2r	.	2F/	.	2A/	-mul	2f\	-o
1C/	ſi-	2E/	-mul	2G/	a-	2g\	ſi-
=171-	=171-	=171-	=171-	=171-	=171-	=171-	=171-
.	.	2.A/	a-	2.c/	-do-	2e\	-mul
*custos:C	*	*	*	*	*	*	*
1F	-mul	.	.	.	.	1f	a-
.	.	4G/	-do-	4B-/	.	.	.
.	.	4A/	-ra-	2A/	-ra-	.	.
.	.	4B-\	.	.	.	.	.
*xywh-#579:1147,2922,4291,890	*	*	*	*	*	*	*
2C/	a-	2c\	-tur	2G/	.	2e\	-do-
=172-	=172-	=172-	=172-	=172-	=172-	=172-	=172-
2D/	-do-	2A/	.	2F/	-tur	1d	-ra-
2BB-/	-ra-	2B-\	.	2.f\	.	.	.
1C	-tur	1G	.	.	.	2c/	-tur,
.	.	.	.	4e\	.	.	.
*	*	*	*	*xywh-#210:1247,2058,4107,858	*	*	*
.	.	.	.	2e\	.	2c/	et
=173-	=173-	=173-	=173-	=173-	=173-	=173-	=173-
2.FF/	.	2F/	et	1f	.	2.c/	con-
.	.	2c\	con-	.	.	.	.
4GG/	.	.	.	.	.	4B-/	-glo-
4AA/	.	2.c\	-glo-	2r	.	2A/	-ri-
4BB-/	.	.	.	.	.	.	.
1C/	et	.	.	2c/	et	2G/	-fi-
*	*	*custos:A	*	*	*	*	*
.	.	4B-\	-ri-	.	.	.	.
=174-	=174-	=174-	=174-	=174-	=174-	=174-	=174-
*	*	*xywh-#407:1205,1930,4266,968	*	*	*	*	*
.	.	2.A/	-fi-	2.c/	con-	2e\	-ca-
1F	con-	.	.	.	.	1f	.
.	.	4G/	-ca-	4B-/	-glo-	.	.
.	.	4A/	-tur,	2A/	-ri-	.	.
.	.	4B-\	.	.	.	.	.
*	*	*	*	*	*	*custos:d	*
2C/	-glo-	2c\	.	2G/	-fi-	2e\	-tur.
=175-	=175-	=175-	=175-	=175-	=175-	=175-	=175-
*	*	*	*	*	*	*xywh-#20:5739,2725,4257,993	*
2D/	-ri-	2A\	qui	2F/	-ca-	1d	.
2BB-/	-fi-	2B-\	.	1f	.	.	.
*custos:F	*	*	*	*	*	*	*
!LO:TX:t=P:problem=sześć wykreślonych nut	!	!	!	!	!	!	!
1C	-ca-	2G/	lo-	.	.	4c/	.
.	.	.	.	.	.	4B-/	.
.	.	2c\	-cu-	2e\	.	4A/	.
.	.	.	.	.	.	4G/	.
=176-	=176-	=176-	=176-	=176-	=176-	=176-	=176-
*xywh-#579:5695,670,4347,890	*	*	*	*	*	*	*
2.F\	-tur,	2c\	-tus	2f\	-tur,	1A	.
.	.	2c\	eſt,	2F/	qui	.	.
4E\	.	.	.	.	.	.	.
1D	.	1d	.	2A/	lo-	2r	.
.	.	.	.	2B-/	-cu-	2d\	qui
=177-	=177-	=177-	=177-	=177-	=177-	=177-	=177-
2r	.	1A	.	2c/	-tus	2e\	lo-
2D/	qui	.	.	2d\	eſt	2f\	-cu-
2.E-X\	lo-	2r	.	2G/	per	2g\	-tus
.	.	2G/	qui	2.B-/	pro-	2.G/	eſt
4F\	-cu-	.	.	.	.	.	.
=178-	=178-	=178-	=178-	=178-	=178-	=178-	=178-
1G	-tus	2B-\	lo-	.	.	.	.
*	*	*	*	*custos:d	*	*	*
.	.	.	.	4c/	.	4A/	.
*	*	*	*	*xywh-#210:1202,2776,4146,920	*	*	*
.	.	2B-\	-cu-	2.d\	-phe-	4B-/	.
.	.	.	.	.	.	4c/	.
1D	eſt	2A/	.	.	.	4d\	.
.	.	.	.	4c/	.	4e\	.
.	.	2F/	-tus	4A/	-tas.	2.f\	per
.	.	.	.	4B-/	.	.	.
=179-	=179-	=179-	=179-	=179-	=179-	=179-	=179-
2AA/	per	2.A/	eſt	2.c/	.	.	.
.	.	.	.	.	.	4e\	pro-
2.C/	pro-	.	.	.	.	2.e\	.
.	.	4G/	.	4B-/	.	.	.
*	*	*custos:G	*	*	*	*	*
.	.	2E/	per	4G/	.	.	.
*	*	*	*	*	*	*custos:d	*
4BB-/	.	.	.	4A/	.	4d\	.
*	*	*xywh-#407:1199,2645,4266,1007	*	*	*	*xywh-#21:930,544,4230,904	*
2GG/	-phe-	2G/	pro-	2B-/	.	2.d\	-phe-
=180-	=180-	=180-	=180-	=180-	=180-	=180-	=180-
1AA	-tas,	4F/	-phe-	2A/	.	.	.
.	.	4E/	.	.	.	4c/	.
.	.	4D/	.	2F/	.	2.c/	-tas,
.	.	4C/	.	.	.	.	.
1GG	.	2D/	.	0G	.	.	.
!	!	!	!	!	!	!LO:SIC:v:s=4Bn/	!
.	.	.	.	.	.	4B-/	.
!	!	!	!	!	!	!LO:SIC:v:s=2Bn/	!
.	.	2D/	-tas,	.	.	2B-/	.
=181-	=181-	=181-	=181-	=181-	=181-	=181-	=181-
1r	.	0C	.	.	.	2c/	.
.	.	.	.	.	.	1c	Et
2.FF/	Et	.	.	1r	.	.	.
.	.	.	.	.	.	2c/	u-
4FF/	v-	.	.	.	.	.	.
=182-	=182-	=182-	=182-	=182-	=182-	=182-	=182-
2BB-/	-nam	0r	.	2.F/	Et	2d/	-na(m)
2AA/	ſanc-	.	.	.	.	2c/	ſanc-
.	.	.	.	4F/	u-	.	.
2GG/	-ta(m)	.	.	2B-/	-nam-	2d\	-ta(m)
*custos:C	*	*	*	*	*	*	*
2C/	ca-	.	.	2A/	.	2e\	ca-
=183-	=183-	=183-	=183-	=183-	=183-	=183-	=183-
*xywh-#579:5651,1404,4341,862	*	*	*	*	*	*	*
4C/	-tho-	1r	.	2G/	-ſanc-	2c/	-tho-
4BB-/	.	.	.	.	.	.	.
4AA/	-li-	.	.	2c/	.	4B-/	-li-
4GG/	.	.	.	.	.	1A	-ca(m),
0FF	-cam,	2r	.	4c/	-tam	.	.
.	.	.	.	4B-/	ca-	.	.
.	.	2C/	et	4A/	-tho-	.	.
*	*	*	*	*custos:A	*	*	*
.	.	.	.	4G/	-li-	4ryy	.
=184-	=184-	=184-	=184-	=184-	=184-	=184-	=184-
*	*	*	*	*xywh-#210:5792,627,4399,847	*	*	*
.	.	2.C/	a-	1A	-cam;	2r	.
.	.	.	.	.	.	2c/	Et
.	.	4C/	-po-	.	.	.	.
1r	.	2F/	-ſto-	1r	.	2.c/	a-
.	.	2E/	-li-	.	.	.	.
.	.	.	.	.	.	4c/	po -
=185-	=185-	=185-	=185-	=185-	=185-	=185-	=185-
0r	.	2D/	-cam	0r	.	2f\	-ſto-
*	*	*	*	*	*	*custos:d	*
.	.	2G/	ec-	.	.	2e\	-li-
*	*	*	*	*	*	*xywh-#21:942,1338,4291,871	*
.	.	4G/	-cle-	.	.	2d\	-cam
.	.	4F/	.	.	.	.	.
.	.	4E/	-ſi-	.	.	2.g\	Ec-
.	.	4D/	.	.	.	.	.
=186-	=186-	=186-	=186-	=186-	=186-	=186-	=186-
0r	.	2E/	-am,	0r	.	.	.
.	.	.	.	.	.	4f\	.
*	*	*custos:G	*	*	*	*	*
.	.	2F/	.	.	.	2.f\	-cle-
*	*	*xywh-#407:5781,522,4407,1007	*	*	*	*	*
.	.	1G	.	.	.	.	.
.	.	.	.	.	.	4e\	.
.	.	.	.	.	.	2e\	-ſi-
=187-	=187-	=187-	=187-	=187-	=187-	=187-	=187-
2r	.	1F	.	0r	.	1.f	-am,
2BB-/	Con-	.	.	.	.	.	.
2BB-/	-fi-	2r	.	.	.	.	.
2BB-/	-te-	2F/	Con-	.	.	4e\	.
.	.	.	.	.	.	4d\	.
=188-	=188-	=188-	=188-	=188-	=188-	=188-	=188-
2AA/	-or	2F/	-fi-	0r	.	1c	.
2FF/	v-	2F/	-te-	.	.	.	.
2GG/	-num	2E/	-or	.	.	1r	.
2AA/	bap-	2C/	v-	.	.	.	.
=189-	=189-	=189-	=189-	=189-	=189-	=189-	=189-
0BB-	-tiſ-	4D/	-num	2r	.	1r	.
.	.	4C/	.	.	.	.	.
.	.	4D/	bap-	2B-/	in	.	.
.	.	4E/	.	.	.	.	.
.	.	0F	-tiſ-	2B-/	re-	2r	.
.	.	.	.	2B-/	-miſ-	2f\	in
=190-	=190-	=190-	=190-	=190-	=190-	=190-	=190-
1FF	-ma	.	.	2A/	-si-	2f\	re-
.	.	.	.	2F/	-o-	2f\	-miſ-
2r	.	1C	-ma	2G/	.	2e\	-si-
2FF/	in	.	.	2A/	-ne(m)	2c\	-o-
=191-	=191-	=191-	=191-	=191-	=191-	=191-	=191-
2BB-/	re-	2r	.	2B-/	pec-	2d\	-ne(m)
2C/	-miſ-	2C/	in	2G/	-ca-	2e\	pec-
2.D/	-si-	2.F/	re-	2F/	-to-	2.f\	-ca-
.	.	.	.	2A/	-rum,	.	.
*custos:BB-	*	*	*	*	*	*	*
4C/	-o-	4F/	-miſ-	.	.	4e\	.
=192-	=192-	=192-	=192-	=192-	=192-	=192-	=192-
*xywh-#579:5695,2166,4335,823	*	*	*	*	*	*	*
2BB-/	-ne(m)	2G/	-si-	2B-/	.	2d/	-to-
*	*	*	*	*	*	*custos:B-	*
2AA/	pec-	2A/	-o-	2c/	.	2c/	-rum,
*	*	*	*	*	*	*xywh-#21:903,1977,4269,921	*
1GG	-ca-	2.D/	-ne(m)	1d	.	1.B-	.
*	*	*custos:D	*	*	*	*	*
.	.	4D/	pec-	.	.	.	.
=193-	=193-	=193-	=193-	=193-	=193-	=193-	=193-
*	*	*xywh-#407:5708,1367,4311,906	*	*	*	*	*
1GG	-to-	2D/	-ca-	1B-	.	.	.
.	.	2D/	-to-	.	.	4A/	.
.	.	.	.	.	.	4G/	.
00FF	-ru(m),	2F/	-ru(m)	1c	.	2.A/	.
.	.	2.F/	et	.	.	.	.
.	.	.	.	.	.	4B-/	.
=194-	=194-	=194-	=194-	=194-	=194-	=194-	=194-
.	.	.	.	2r	.	1c	.
.	.	4G/	.	.	.	.	.
.	.	4A\	.	2.F/	et	.	.
.	.	4B-\	ex-	.	.	.	.
.	.	2c\	-pec-	.	.	2r	.
.	.	.	.	4G/	ex-	.	.
.	.	2F/	-to	4A/	-pe-	2.c/	et
*	*	*	*	*custos:c	*	*	*
.	.	.	.	4B-/	.	.	.
=195-	=195-	=195-	=195-	=195-	=195-	=195-	=195-
*	*	*	*	*xywh-#210:5758,1295,4348,920	*	*	*
.	.	1A	.	1c	-cto-	.	.
.	.	.	.	.	.	4d\	ex-
.	.	.	.	.	.	4e\	-pec-
.	.	.	.	.	.	4f\	.
2r	.	2G/	.	2B-/	.	2g\	-to,
2.FF/	et	4F/	.	2A/	.	2.a\	.
.	.	4G/	.	.	.	.	.
=196-	=196-	=196-	=196-	=196-	=196-	=196-	=196-
.	.	4A\	.	2.c/	.	.	.
4GG/	ex-	4B-\	.	.	.	4g\	.
4AA/	-pec-	2.c\	.	.	.	2f\	.
4BB-/	.	.	.	8B-/L	.	.	.
.	.	.	.	8A/J	.	.	.
2C/	-to	.	.	2G/	.	2e\	.
.	.	4B-\	.	.	.	.	.
2D/	.	2B-\	.	2F/	.	2.f\	.
=197-	=197-	=197-	=197-	=197-	=197-	=197-	=197-
1C	.	1c	.	1G	.	.	.
.	.	.	.	.	.	4e\	.
.	.	.	.	.	.	2e\	.
0FF	.	2r	.	1F	.	2f\	.
*	*	*	*	*	*	*custos:c	*
.	.	1A\	re-	.	.	2c/	re-
=198-	=198-	=198-	=198-	=198-	=198-	=198-	=198-
*	*	*	*	*	*	*xywh-#21:958,2765,4224,932	*
.	.	.	.	2r	.	4c\	-ſur-
.	.	.	.	.	.	4d\	.
*	*	*custos:G	*	*	*	*	*
.	.	2A/	-ſur-	2c/	-re-	4e\	-rec-
.	.	.	.	.	.	4f\	.
*	*	*xywh-#407:5713,2081,4452,883	*	*	*	*	*
2r	.	2G/	-rec-	2B-/	-ſu-	2g\	-ti-
2FF/	re-	4F/	-ti-	2A/	.	2.a\	-o-
.	.	4G/	.	.	.	.	.
=199-	=199-	=199-	=199-	=199-	=199-	=199-	=199-
4FF/	-ſur-	4A/	-o-	2.c/	-rec-	.	.
4GG/	.	4B-\	-nem	.	.	4g\	-nem
4AA/	-rec-	2.c\	mor-	.	.	2f\	mor-
4BB-/	-ti-	.	.	8B-/L	-ti-	.	.
.	.	.	.	8A/J	.	.	.
2C/	-o-	.	.	2G/	-o-	2e\	-tu-
.	.	4B-\	.	.	.	.	.
2D/	-nem-	2B-\	-tu-	2F/	-nem	2.f\	-o-
=200-	=200-	=200-	=200-	=200-	=200-	=200-	=200-
*custos:C	*	*	*	*	*	*	*
2C/	.	2.c\	-o-	1G	.	.	.
.	.	.	.	.	.	4e\	.
*xywh-#579:5673,2855,4425,918	*	*	*	*	*	*	*
2C/	.	.	.	.	.	2e\	-rum,
.	.	4B-\	.	.	.	.	.
2FF/	.	2.A/	-rum	2F/	.	2.f\	.
1F\	-mor-	.	.	2c\	mor-	.	.
.	.	4G/	.	.	.	4e\	.
=201-	=201-	=201-	=201-	=201-	=201-	=201-	=201-
.	.	2F/	.	2d\	-tu-	2d\	.
*	*	*	*	*custos:f	*	*	*
2E\	-tu-	2.G/	.	2e\	-o-	1c	.
*	*	*	*	*xywh-#210:5752,2131,4365,796	*	*	*
1D	-o-	.	.	1f	-rum	.	.
.	.	4F/	.	.	.	.	.
.	.	2F/	.	.	.	2B-/	.
=202-	=202-	=202-	=202-	=202-	=202-	=202-	=202-
0C	-rum,	1G	.	2e\	.	2.c/	.
.	.	.	.	2c/	et	.	.
.	.	.	.	.	.	4d\	.
.	.	2r	.	2.c/	vi-	1e	.
.	.	2G/	Et	.	.	.	.
.	.	.	.	4B-/	.	.	.
=203-	=203-	=203-	=203-	=203-	=203-	=203-	=203-
2r	.	2.c\	vi-	2A/	-ta(m)-	1r	.
2C/	Et	.	.	2G/	.	.	.
.	.	4B-\	-ta(m)	.	.	.	.
2.F\	vi-	2.A/	ven-	2F/	-ven-	2r	.
*	*	*	*	*	*	*custos:f	*
.	.	.	.	2.f\	-tu-	2c/	Et
*	*	*custos:F	*	*	*	*	*
4E\	.	4G/	-tu-	.	.	.	.
=204-	=204-	=204-	=204-	=204-	=204-	=204-	=204-
*	*	*xywh-#407:5708,2785,4350,911	*	*	*	*xywh-#21:5682,506,4313,1065	*
2.D/	-tam	1F	-ri	.	.	2.f\	vi-
.	.	.	.	4e\	.	.	.
.	.	.	.	1d	-ri	.	.
4C/	uen-	.	.	.	.	4e\	.
2BB-/	-tu-	2r	.	.	.	2d\	-tam
2AA/	.	2F/	ſe-	2A/	ſe-	2c/	ven-
=205-	=205-	=205-	=205-	=205-	=205-	=205-	=205-
2GG/	-ri	2G/	-cu-	2B-/	-cu-	2B-/	-tu-
2FF/	ſe-	2A/	-li,	2c/	-li	2A/	-ri-
2.BB-/	-cu-	1B-	A-	1.d	A -	2G/	-ſe-
.	.	.	.	.	.	1F/	-cu-
4C/	-li	.	.	.	.	.	.
=206-	=206-	=206-	=206-	=206-	=206-	=206-	=206-
*lig	*	*	*	*	*	*	*
1D	A-	2A/	.	.	.	.	.
.	.	4G/	-men,-	2B-/	-me(n);	2.f\	-li.
.	.	4F/	.	.	.	.	.
1C	.	1G	.	1c	.	.	.
.	.	.	.	.	.	4e\	.
.	.	.	.	.	.	2e\	A-
*Xlig	*	*	*	*	*	*	*
=207-	=207-	=207-	=207-	=207-	=207-	=207-	=207-
0FF	-men,	1F	.	2r	.	0f	-me(n):
.	.	.	.	2A/	et	.	.
.	.	2r	.	2.c/	ui-	.	.
.	.	2F/	-Et	.	.	.	.
.	.	.	.	4B-/	.	.	.
=208-	=208-	=208-	=208-	=208-	=208-	=208-	=208-
2r	.	2.c\	vi-	2.A/	-ta(m)	1r	.
*custos:F	*	*	*	*	*	*	*
2FF/	Et	.	.	.	.	.	.
.	.	4B-\	-ta(m)	4G/	uen-	.	.
*xywh-#580:1101,545,4210,886	*	*	*	*	*	*	*
2.F\	vi-	2.A/	ven-	4F/	-tu-	2r	.
.	.	.	.	4E/	.	.	.
.	.	.	.	4F/	.	2c/	Et
*	*	*	*	*custos:A	*	*	*
4E\	.	4G/	-tu-	4G/	.	.	.
=209-	=209-	=209-	=209-	=209-	=209-	=209-	=209-
*	*	*	*	*xywh-#210:5741,2849,4197,864	*	*	*
2.D/	-tam	1F	-ri	1A	-ri	2.f\	ui-
4C/	ven-	.	.	.	.	4e\	.
2BB-/	-tu-	2r	.	2r	.	2d\	-tam
2AA/	-ri	2F/	ſe-	2A/	ſe-	2c/	uen-
=210-	=210-	=210-	=210-	=210-	=210-	=210-	=210-
2GG/	ſe-	2G/	-cu-	2B-/	-cu-	2B-/	-tu-
2FF/	-cu-	2A/	.	2c/	-li	2A/	-ri
*	*	*	*	*	*	*custos:F	*
2.BB-/	-li	1B-	-li,	1.d	A-	2G/	ſe-
*	*	*	*	*	*	*xywh-#21:5638,1444,4219,810	*
.	.	.	.	.	.	1F/	-c(u)-
4C/	A-	.	.	.	.	.	.
=211-	=211-	=211-	=211-	=211-	=211-	=211-	=211-
1D	.	1.A	A-	.	.	.	-li
.	.	.	.	2A/	-me(n);	1f	A-
0C	-men	.	.	1.c	.	.	.
.	.	4G/	-men.	.	.	4e\	.
.	.	4F/	.	.	.	4d\	.
=212-	=212-	=212-	=212-	=212-	=212-	=212-	=212-
.	.	1G	.	.	.	1e	-men:
.	.	.	.	2B-/	.	.	.
1.F	A-	1%7F;	.	2.A/	.	2f\	.
.	.	.	.	.	.	2c/	.
.	.	.	.	4G/	.	.	.
=213-	=213-	=213-	=213-	=213-	=213-	=213-	=213-
.	.	.	.	1F	.	1.f	A-
2E\	-men	.	.	.	.	.	.
2D/	.	.	.	1.f	A-	.	.
2C/	.	.	.	.	.	2e\	-men:
=214-	=214-	=214-	=214-	=214-	=214-	=214-	=214-
1.BB-	.	.	.	.	.	2d\	.
.	.	.	.	2e\	-men.	2c/	.
.	.	.	.	2d\	.	2B-/	.
2AA/	.	.	.	2c\	.	2c/	.
=215-	=215-	=215-	=215-	=215-	=215-	=215-	=215-
1BB-	.	.	.	1B-	.	1d	.
1FF;	.	.	.	1A;	.	1c;	.
=-	=-	=-	=-	=-	=-	=-	=-
*-	*-	*-	*-	*-	*-	*-	*-
!!!system-decoration: [(s1,s2,s3,s4)]
!!!RDF**kern: > = above
!!!RDF**kern: < = below
!!!ENC: Mateusz Solarz
!!!END: 2022-01-20
!!!ENC: Krzysztof Stępień
!!!END: 2022-01-26
!!!ENC-iiif: Antoni Szymański
!!!END-iiif: 2022-09-01
!!!YEC: Copyright 2022 Narodowy Instytut Fryderyka Chopina (https://polishscores.org)
!!!YEM: License CC-BY-4.0 (https://creativecommons.org/licenses/by/4.0)
